images/logo.svg

<svg width="233" height="62" viewBox="0 0 233 62" fill="none" xmlns="http://www.w3.org/2000/svg">
<path d="M60.512 30.752C60.512 47.188 47.188 60.512 30.752 60.512C14.316 60.512 0.992 47.188 0.992 30.752C0.992 14.316 14.316 0.992 30.752 0.992C47.188 0.992 60.512 14.316 60.512 30.752Z" fill="#026FD4"/>
<path fill-rule="evenodd" clip-rule="evenodd" d="M0 31C0 13.8792 13.8792 0 31 0C48.1208 0 62 13.8792 62 31C62 48.1208 48.1208 62 31 62C13.8792 62 0 48.1208 0 31ZM21.2292 10.5257C23.6198 5.89866 26.6442 3.16896 29.76 2.59431V12.3265C28.3447 12.7349 27.2185 13.8247 26.7594 15.2177C25.1373 15.0954 23.5616 14.9042 22.0436 14.6508C21.9138 13.5676 21.3476 12.6188 20.526 11.9847C20.752 11.482 20.9865 10.9954 21.2292 10.5257ZM26.6679 17.6977C24.9149 17.5684 23.2068 17.3617 21.5574 17.0837C20.8864 18.2659 19.6259 19.0697 18.1756 19.0954C17.6203 21.4872 17.2258 24.0595 17.0223 26.7594C18.4153 27.2185 19.5051 28.3448 19.9135 29.76H24.6711C25.1711 27.1934 27.1934 25.171 29.76 24.6711V20.9055C28.2392 20.4667 27.052 19.2409 26.6679 17.6977ZM32.24 20.9055V24.6711C34.8066 25.171 36.8289 27.1934 37.3289 29.76H42.0865C42.4949 28.3448 43.5847 27.2185 44.9777 26.7594C44.7742 24.0595 44.3797 21.4872 43.8244 19.0954C42.3741 19.0697 41.1136 18.2659 40.4426 17.0837C38.7932 17.3617 37.0851 17.5684 35.3321 17.6977C34.948 19.2409 33.7608 20.4667 32.24 20.9055ZM35.2406 15.2177C36.8627 15.0954 38.4384 14.9042 39.9564 14.6508C40.0862 13.5676 40.6524 12.6188 41.474 11.9847C41.248 11.482 41.0135 10.9954 40.7708 10.5257C38.3802 5.89866 35.3558 3.16896 32.24 2.59431V12.3265C33.6553 12.7349 34.7815 13.8247 35.2406 15.2177ZM18.1781 11.1607C18.4484 10.5492 18.7312 9.9576 19.0259 9.38731C20.201 7.11293 21.5976 5.1219 23.1788 3.56573C18.344 4.94147 14.0328 7.56079 10.6132 11.0559C11.9061 11.7182 13.3265 12.3195 14.8553 12.8491C15.5732 11.8276 16.7606 11.16 18.104 11.16C18.1287 11.16 18.1534 11.1602 18.1781 11.1607ZM14.1372 15.2249C12.2421 14.5737 10.4886 13.8143 8.90832 12.9612C5.13425 17.5777 2.77859 23.399 2.50647 29.76H11.3345C11.7733 28.2392 12.9991 27.052 14.5423 26.6679C14.7573 23.7524 15.1863 20.9624 15.8008 18.3596C14.8175 17.6575 14.1681 16.5178 14.1372 15.2249ZM19.9135 32.24C19.5051 33.6552 18.4153 34.7815 17.0223 35.2406C17.2258 37.9405 17.6203 40.5128 18.1756 42.9046C19.6105 42.93 20.8595 43.717 21.5357 44.8786C23.1944 44.6065 24.9112 44.4063 26.6725 44.2843C27.0613 42.7495 28.2451 41.5316 29.76 41.0945V37.3289C27.1934 36.829 25.1711 34.8066 24.6711 32.24H19.9135ZM14.5423 35.3321C14.7573 38.2475 15.1863 41.0376 15.8008 43.6404C14.8392 44.327 14.1969 45.4322 14.1401 46.6898C12.2181 47.3364 10.4382 48.0935 8.83302 48.9463C5.10293 44.3447 2.77677 38.5586 2.50647 32.24H11.3345C11.7733 33.7608 12.9991 34.948 14.5423 35.3321ZM10.531 50.8599C11.8361 50.2021 13.268 49.6059 14.808 49.0821C15.5203 50.1423 16.7307 50.84 18.104 50.84C18.1287 50.84 18.1534 50.8398 18.1781 50.8393C18.4484 51.4508 18.7312 52.0424 19.0259 52.6127C20.201 54.8871 21.5976 56.8781 23.1788 58.4343C18.3052 57.0475 13.9637 54.3971 10.531 50.8599ZM21.2292 51.4743C20.9865 51.0046 20.7519 50.518 20.526 50.0154C21.3581 49.3733 21.9282 48.408 22.0484 47.3076C23.564 47.0625 25.1361 46.8793 26.7536 46.7645C27.2089 48.166 28.3387 49.2634 29.76 49.6735V59.4057C26.6442 58.831 23.6198 56.1013 21.2292 51.4743ZM32.24 59.4057V49.6735C33.6489 49.2669 34.7714 48.1851 35.2344 46.801C36.8616 46.9309 38.4413 47.1302 39.9618 47.3922C40.1013 48.4574 40.6632 49.3897 41.474 50.0154C41.2481 50.518 41.0135 51.0046 40.7708 51.4743C38.3802 56.1013 35.3558 58.831 32.24 59.4057ZM43.8219 50.8393C43.5516 51.4508 43.2688 52.0424 42.9741 52.6127C41.799 54.8871 40.4024 56.8781 38.8212 58.4343C43.6168 57.0697 47.8971 54.4817 51.3034 51.0291C50.0223 50.3622 48.6132 49.7555 47.0949 49.2202C46.3727 50.2025 45.2088 50.84 43.896 50.84C43.8713 50.84 43.8466 50.8398 43.8219 50.8393ZM47.864 46.8616C49.732 47.5172 51.4594 48.2787 53.0151 49.1321C56.8339 44.5009 59.2196 38.6439 59.4935 32.24H50.6655C50.2267 33.7608 49.0009 34.948 47.4577 35.3321C47.2427 38.2476 46.8137 41.0376 46.1992 43.6404C47.2044 44.3582 47.8606 45.5331 47.864 46.8616ZM43.8243 42.9046C44.3797 40.5128 44.7742 37.9405 44.9777 35.2406C43.5847 34.7815 42.4949 33.6552 42.0865 32.24H37.3289C36.8289 34.8066 34.8066 36.829 32.24 37.3289V41.0945C33.7671 41.5352 34.9578 42.7693 35.3368 44.3216C37.0814 44.4579 38.7806 44.6711 40.421 44.9549C41.0862 43.7516 42.3583 42.9306 43.8243 42.9046ZM42.9741 9.38731C43.2688 9.9576 43.5516 10.5492 43.8219 11.1607C43.8466 11.1602 43.8713 11.16 43.896 11.16C45.2394 11.16 46.4268 11.8276 47.1447 12.8491C48.6735 12.3195 50.0939 11.7182 51.3868 11.0559C47.9672 7.56079 43.656 4.94147 38.8212 3.56573C40.4024 5.1219 41.799 7.11293 42.9741 9.38731ZM47.8628 15.2249C47.8319 16.5178 47.1825 17.6575 46.1992 18.3596C46.8137 20.9624 47.2427 23.7524 47.4577 26.6679C49.0009 27.052 50.2267 28.2392 50.6655 29.76H59.4935C59.2214 23.399 56.8658 17.5777 53.0917 12.9611C51.5114 13.8143 49.7579 14.5737 47.8628 15.2249Z" fill="white"/>
<path d="M82.0022 16.2239H85.5109V45.5015H82.0022V16.2239Z" fill="white"/>
<path d="M117.271 45.8036C115.335 45.8036 113.682 45.4411 112.311 44.7162C110.939 43.9779 109.891 42.9107 109.165 41.5146C108.452 40.1051 108.096 38.4137 108.096 36.4404V34.0845C108.096 32.0172 108.439 30.2519 109.125 28.7887C109.824 27.3255 110.832 26.2113 112.149 25.4462C113.467 24.681 115.053 24.2984 116.908 24.2984C118.656 24.2984 120.148 24.7078 121.385 25.5267C122.622 26.3321 123.563 27.5067 124.208 29.0505C124.867 30.5942 125.196 32.4535 125.196 34.6281V36.5008L111.403 36.5209L111.407 33.5408H121.889V33.4401C121.835 31.5608 121.372 30.1043 120.498 29.0706C119.637 28.0236 118.441 27.5 116.908 27.5C115.161 27.5 113.803 28.0571 112.835 29.1713C111.88 30.2721 111.403 31.836 111.403 33.863V36.5209C111.403 38.4271 111.914 39.9038 112.936 40.9508C113.957 41.9845 115.403 42.5013 117.271 42.5013C118.172 42.5013 119.066 42.3201 119.953 41.9576C120.841 41.5818 121.627 41.0582 122.313 40.387L124.652 42.6825C123.63 43.6759 122.474 44.4478 121.183 44.9981C119.893 45.5351 118.589 45.8036 117.271 45.8036Z" fill="#0084FF"/>
<path d="M142.962 24.6004H146.652L138.586 45.5015H135.884L127.818 24.6004H131.508L137.235 40.6287L142.962 24.6004Z" fill="#0084FF"/>
<path d="M160.687 45.8036C158.657 45.8036 156.869 45.3539 155.323 44.4545C153.791 43.5551 152.601 42.2798 151.754 40.6287C150.907 38.9775 150.484 37.0646 150.484 34.8899V26.8557C150.484 24.681 150.907 22.7681 151.754 21.1169C152.601 19.4658 153.791 18.1905 155.323 17.2911C156.869 16.3783 158.657 15.9219 160.687 15.9219C162.368 15.9219 163.914 16.2709 165.325 16.9689C166.737 17.667 167.913 18.6603 168.854 19.949C169.809 21.2377 170.454 22.7278 170.79 24.4192H167.241C166.945 23.4124 166.461 22.5197 165.789 21.7411C165.13 20.9491 164.351 20.3383 163.45 19.9088C162.563 19.4792 161.642 19.2644 160.687 19.2644C159.37 19.2644 158.207 19.5799 157.199 20.2108C156.204 20.8417 155.431 21.7277 154.88 22.8688C154.328 24.0098 154.053 25.3388 154.053 26.8557V34.8899C154.053 36.3934 154.328 37.7157 154.88 38.8567C155.431 39.9977 156.204 40.8837 157.199 41.5146C158.207 42.1321 159.37 42.4409 160.687 42.4409C161.655 42.4409 162.583 42.2395 163.47 41.8368C164.357 41.4341 165.13 40.8434 165.789 40.0648C166.461 39.2863 166.945 38.3667 167.241 37.3062H170.79C170.454 38.9976 169.809 40.4877 168.854 41.7764C167.9 43.0517 166.717 44.0451 165.305 44.7565C163.893 45.4546 162.354 45.8036 160.687 45.8036Z" fill="white"/>
<path d="M184.281 45.8036C182.466 45.8036 180.913 45.4479 179.622 44.7364C178.332 44.0249 177.344 42.9913 176.658 41.6354C175.986 40.2662 175.65 38.6218 175.65 36.7021V33.2992C175.65 31.4064 175.986 29.7888 176.658 28.4464C177.344 27.0906 178.332 26.0637 179.622 25.3656C180.913 24.6541 182.466 24.2984 184.281 24.2984C186.095 24.2984 187.648 24.6541 188.939 25.3656C190.229 26.0637 191.211 27.0906 191.883 28.4464C192.569 29.7888 192.911 31.4064 192.911 33.2992V36.7626C192.911 38.6688 192.569 40.2998 191.883 41.6556C191.211 42.998 190.229 44.0249 188.939 44.7364C187.648 45.4479 186.095 45.8036 184.281 45.8036ZM184.281 42.5013C185.907 42.5013 187.164 41.9979 188.052 40.9911C188.952 39.9843 189.403 38.5748 189.403 36.7626V33.2992C189.403 31.4869 188.952 30.0841 188.052 29.0908C187.164 28.0974 185.907 27.6007 184.281 27.6007C182.654 27.6007 181.39 28.0974 180.49 29.0908C179.602 30.0841 179.159 31.4869 179.159 33.2992V36.7626C179.159 38.5748 179.602 39.9843 180.49 40.9911C181.39 41.9979 182.654 42.5013 184.281 42.5013Z" fill="#0084FF"/>
<path d="M198.759 24.6004H202.268V27.572V45.5015H198.759V24.6004Z" fill="#0084FF"/>
<path d="M216.384 24.6004H219.893V27.4104V42.8176V53.9989H216.384V50.517V24.6004Z" fill="#0084FF"/>
<path d="M82 50.517H216.384V53.9989L219.893 54H82V50.517Z" fill="#0084FF"/>
<path fill-rule="evenodd" clip-rule="evenodd" d="M148.988 9L142.962 24.6004H146.652L152.677 9L148.988 9Z" fill="#0084FF"/>
<path d="M91.4194 42.1993H85.5109V45.5015H91.2782C93.6981 45.5015 95.7415 45.1055 97.4085 44.3135C99.0755 43.5081 100.332 42.3268 101.179 40.7696C102.026 39.199 102.45 37.2794 102.45 35.0107V26.7147C102.45 24.4326 102.026 22.513 101.179 20.9558C100.332 19.3852 99.0755 18.2039 97.4085 17.4119C95.7549 16.6199 93.7182 16.2239 91.2984 16.2239H85.5109V19.5262H91.4194C93.8661 19.5262 95.7213 20.1236 96.985 21.3183C98.2621 22.513 98.9007 24.2581 98.9007 26.5536V35.1718C98.9007 37.4673 98.2621 39.2124 96.985 40.4072C95.7213 41.6019 93.8661 42.1993 91.4194 42.1993Z" fill="white"/>
<path d="M209.185 27.943C209.79 28.1712 210.287 28.5068 210.677 28.9498L212.956 25.9294C212.378 25.3925 211.699 24.9897 210.919 24.7213C210.153 24.4394 209.292 24.2984 208.338 24.2984C206.98 24.2984 205.737 24.6474 204.607 25.3455C203.69 25.9016 202.91 26.6439 202.268 27.572V32.2722C202.268 30.809 202.692 29.668 203.538 28.8491C204.385 28.0168 205.568 27.6007 207.088 27.6007C207.881 27.6007 208.58 27.7148 209.185 27.943Z" fill="#0084FF"/>
<path d="M221.929 44.9176C222.991 45.5083 224.268 45.8036 225.761 45.8036C227.28 45.8036 228.584 45.4747 229.673 44.8169C230.762 44.1457 231.588 43.1792 232.153 41.9174C232.718 40.6555 233 39.1386 233 37.3666V32.8159C233 31.0171 232.724 29.4801 232.173 28.2048C231.622 26.9295 230.815 25.963 229.753 25.3052C228.705 24.634 227.441 24.2984 225.962 24.2984C224.537 24.2984 223.267 24.6139 222.151 25.2448C221.263 25.7531 220.51 26.4751 219.893 27.4104V32.1514C219.893 31.2654 220.081 30.46 220.457 29.7351C220.834 29.0102 221.378 28.4397 222.091 28.0236C222.803 27.6074 223.643 27.3993 224.611 27.3993C226.171 27.3993 227.374 27.8759 228.221 28.829C229.068 29.7687 229.491 31.1044 229.491 32.836V37.3666C229.491 39.058 229.068 40.3736 228.221 41.3133C227.374 42.2395 226.171 42.7027 224.611 42.7027C223.643 42.7027 222.803 42.4879 222.091 42.0583C221.378 41.6287 220.834 41.0448 220.457 40.3065C220.081 39.5682 219.893 38.7493 219.893 37.8499V42.8176C220.383 43.7289 221.062 44.4289 221.929 44.9176Z" fill="#0084FF"/>
</svg>

<svg width="233" height="62" fill="none" xmlns="http://www.w3.org/2000/svg"><path d="M60.512 30.752c0 16.436-13.324 29.76-29.76 29.76S.992 47.188.992 30.752 14.316.992 30.752.992s29.76 13.324 29.76 29.76Z" fill="#026FD4"/><path fill-rule="evenodd" clip-rule="evenodd" d="M0 31C0 13.88 13.88 0 31 0c17.12 0 31 13.88 31 31 0 17.12-13.88 31-31 31C13.88 62 0 48.12 0 31Zm21.23-20.474c2.39-4.627 5.414-7.357 8.53-7.932v9.732a4.474 4.474 0 0 0-3 2.892 52.756 52.756 0 0 1-4.716-.567 3.964 3.964 0 0 0-1.518-2.666c.226-.503.46-.99.703-1.46Zm5.438 7.172a55.219 55.219 0 0 1-5.11-.614 3.967 3.967 0 0 1-3.382 2.011 50.896 50.896 0 0 0-1.154 7.664 4.474 4.474 0 0 1 2.892 3.001h4.757a6.455 6.455 0 0 1 5.089-5.089v-3.765a4.472 4.472 0 0 1-3.092-3.208Zm5.572 3.207v3.766a6.455 6.455 0 0 1 5.089 5.089h4.758a4.474 4.474 0 0 1 2.89-3 50.896 50.896 0 0 0-1.153-7.665 3.967 3.967 0 0 1-3.381-2.011c-1.65.278-3.358.484-5.11.614a4.472 4.472 0 0 1-3.093 3.207Zm3-5.687a52.756 52.756 0 0 0 4.716-.567 3.964 3.964 0 0 1 1.518-2.666c-.226-.503-.46-.99-.703-1.46-2.39-4.626-5.415-7.356-8.531-7.93v9.731a4.474 4.474 0 0 1 3 2.892ZM18.179 11.16c.27-.612.553-1.203.848-1.774 1.175-2.274 2.572-4.265 4.153-5.821a28.503 28.503 0 0 0-12.566 7.49 33.043 33.043 0 0 0 4.242 1.793 3.963 3.963 0 0 1 3.323-1.688Zm-4.04 4.064a34.901 34.901 0 0 1-5.23-2.264 28.391 28.391 0 0 0-6.403 16.8h8.829a4.472 4.472 0 0 1 3.207-3.092 53.33 53.33 0 0 1 1.259-8.308 3.963 3.963 0 0 1-1.664-3.135Zm5.775 17.015a4.474 4.474 0 0 1-2.89 3 50.76 50.76 0 0 0 1.153 7.665 3.966 3.966 0 0 1 3.36 1.974 55.42 55.42 0 0 1 5.136-.595 4.472 4.472 0 0 1 3.088-3.19V37.33a6.455 6.455 0 0 1-5.089-5.089h-4.758Zm-5.37 3.092A53.33 53.33 0 0 0 15.8 43.64a3.964 3.964 0 0 0-1.66 3.05 35.368 35.368 0 0 0-5.308 2.256A28.39 28.39 0 0 1 2.506 32.24h8.829a4.472 4.472 0 0 0 3.207 3.092ZM10.53 50.86a33.449 33.449 0 0 1 4.277-1.778 3.964 3.964 0 0 0 3.37 1.757c.27.612.553 1.203.848 1.774 1.175 2.274 2.572 4.265 4.153 5.821A28.507 28.507 0 0 1 10.53 50.86Zm10.698.614c-.242-.47-.477-.956-.703-1.459a3.964 3.964 0 0 0 1.522-2.707 53.005 53.005 0 0 1 4.706-.544 4.474 4.474 0 0 0 3.006 2.91v9.732c-3.116-.575-6.14-3.305-8.53-7.932Zm11.011 7.932v-9.733a4.474 4.474 0 0 0 2.994-2.872c1.628.13 3.207.33 4.728.591a3.965 3.965 0 0 0 1.512 2.623c-.226.503-.46.99-.703 1.46-2.39 4.626-5.415 7.356-8.531 7.93Zm11.582-8.567c-.27.612-.553 1.203-.848 1.774-1.175 2.274-2.572 4.265-4.153 5.821a28.502 28.502 0 0 0 12.482-7.405 32.614 32.614 0 0 0-4.208-1.809 3.962 3.962 0 0 1-3.273 1.62Zm4.042-3.977a34.443 34.443 0 0 1 5.151 2.27 28.392 28.392 0 0 0 6.478-16.892h-8.828a4.472 4.472 0 0 1-3.207 3.092 53.33 53.33 0 0 1-1.259 8.308 3.963 3.963 0 0 1 1.665 3.222Zm-4.04-3.957a50.89 50.89 0 0 0 1.154-7.664 4.474 4.474 0 0 1-2.892-3.001H37.33a6.455 6.455 0 0 1-5.089 5.089v3.765a4.472 4.472 0 0 1 3.097 3.228c1.744.136 3.444.35 5.084.633a3.967 3.967 0 0 1 3.403-2.05Zm-.85-33.518c.295.57.578 1.162.848 1.774l.074-.001c1.343 0 2.53.668 3.249 1.69a33.196 33.196 0 0 0 4.242-1.794 28.503 28.503 0 0 0-12.566-7.49c1.581 1.556 2.978 3.547 4.153 5.821Zm4.889 5.838a3.963 3.963 0 0 1-1.664 3.135 53.33 53.33 0 0 1 1.259 8.308 4.472 4.472 0 0 1 3.208 3.092h8.828a28.391 28.391 0 0 0-6.402-16.799 34.892 34.892 0 0 1-5.23 2.264Z" fill="#fff"/><path d="M82.002 16.224h3.509V45.5h-3.509V16.224Z" fill="#fff"/><path d="M117.271 45.804c-1.936 0-3.589-.363-4.96-1.088a7.458 7.458 0 0 1-3.146-3.201c-.713-1.41-1.069-3.101-1.069-5.075v-2.355c0-2.068.343-3.833 1.029-5.296.699-1.463 1.707-2.578 3.024-3.343 1.318-.765 2.904-1.148 4.759-1.148 1.748 0 3.24.41 4.477 1.229 1.237.805 2.178 1.98 2.823 3.523.659 1.544.988 3.403.988 5.578v1.873l-13.793.02.004-2.98h10.482v-.1c-.054-1.88-.517-3.337-1.391-4.37-.861-1.047-2.057-1.571-3.59-1.571-1.747 0-3.105.557-4.073 1.671-.955 1.101-1.432 2.665-1.432 4.692v2.658c0 1.906.511 3.383 1.533 4.43 1.021 1.033 2.467 1.55 4.335 1.55.901 0 1.795-.18 2.682-.543a7.553 7.553 0 0 0 2.36-1.571l2.339 2.295a11.294 11.294 0 0 1-3.469 2.316c-1.29.537-2.594.806-3.912.806ZM142.962 24.6h3.69l-8.066 20.901h-2.702l-8.066-20.9h3.69l5.727 16.028 5.727-16.029Z" fill="#0084FF"/><path d="M160.687 45.804c-2.03 0-3.818-.45-5.364-1.35-1.532-.899-2.722-2.174-3.569-3.825-.847-1.651-1.27-3.564-1.27-5.74v-8.033c0-2.175.423-4.088 1.27-5.74.847-1.65 2.037-2.925 3.569-3.825 1.546-.913 3.334-1.37 5.364-1.37 1.681 0 3.227.35 4.638 1.048a9.56 9.56 0 0 1 3.529 2.98c.955 1.289 1.6 2.779 1.936 4.47h-3.549a7.124 7.124 0 0 0-1.452-2.678 6.852 6.852 0 0 0-2.339-1.832 6.266 6.266 0 0 0-2.763-.645c-1.317 0-2.48.316-3.488.947-.995.63-1.768 1.517-2.319 2.658-.552 1.14-.827 2.47-.827 3.987v8.034c0 1.503.275 2.826.827 3.967.551 1.14 1.324 2.027 2.319 2.658 1.008.617 2.171.926 3.488.926a6.67 6.67 0 0 0 2.783-.604 6.576 6.576 0 0 0 2.319-1.772c.672-.779 1.156-1.698 1.452-2.759h3.549c-.336 1.692-.981 3.182-1.936 4.47a9.992 9.992 0 0 1-3.549 2.98c-1.412.699-2.951 1.048-4.618 1.048Z" fill="#fff"/><path d="M184.281 45.804c-1.815 0-3.368-.356-4.659-1.068-1.29-.711-2.278-1.745-2.964-3.1-.672-1.37-1.008-3.014-1.008-4.934V33.3c0-1.893.336-3.51 1.008-4.853.686-1.355 1.674-2.382 2.964-3.08 1.291-.712 2.844-1.068 4.659-1.068 1.814 0 3.367.356 4.658 1.068 1.29.698 2.272 1.725 2.944 3.08.686 1.343 1.028 2.96 1.028 4.853v3.464c0 1.906-.342 3.537-1.028 4.893-.672 1.342-1.654 2.369-2.944 3.08-1.291.712-2.844 1.068-4.658 1.068Zm0-3.303c1.626 0 2.883-.503 3.771-1.51.9-1.007 1.351-2.416 1.351-4.228v-3.464c0-1.812-.451-3.215-1.351-4.208-.888-.994-2.145-1.49-3.771-1.49-1.627 0-2.891.496-3.791 1.49-.888.993-1.331 2.396-1.331 4.208v3.464c0 1.812.443 3.221 1.331 4.228.9 1.007 2.164 1.51 3.791 1.51ZM198.759 24.6h3.509v20.902h-3.509V24.6Zm17.625 0h3.509v29.398h-3.509V24.6Z" fill="#0084FF"/><path d="M82 50.517h134.384v3.482l3.509.001H82v-3.483Z" fill="#0084FF"/><path fill-rule="evenodd" clip-rule="evenodd" d="m148.988 9-6.026 15.6h3.69L152.677 9h-3.689Z" fill="#0084FF"/><path d="M91.42 42.2h-5.91v3.3h5.768c2.42 0 4.463-.395 6.13-1.188 1.668-.805 2.924-1.986 3.771-3.543.847-1.571 1.271-3.49 1.271-5.76v-8.295c0-2.282-.424-4.202-1.271-5.76-.847-1.57-2.103-2.751-3.77-3.543-1.654-.792-3.69-1.188-6.11-1.188H85.51v3.302h5.908c2.447 0 4.302.598 5.566 1.792 1.277 1.195 1.916 2.94 1.916 5.236v8.618c0 2.295-.639 4.04-1.916 5.235-1.264 1.195-3.119 1.792-5.566 1.792Z" fill="#fff"/><path d="M209.185 27.943a3.674 3.674 0 0 1 1.492 1.007l2.279-3.02a5.66 5.66 0 0 0-2.037-1.209c-.766-.282-1.627-.423-2.581-.423a6.96 6.96 0 0 0-3.731 1.048 7.657 7.657 0 0 0-2.339 2.226v4.7c0-1.463.424-2.604 1.27-3.423.847-.832 2.03-1.248 3.55-1.248.793 0 1.492.114 2.097.342Zm12.744 16.975c1.062.59 2.339.886 3.832.886 1.519 0 2.823-.33 3.912-.987 1.089-.671 1.915-1.638 2.48-2.9.565-1.261.847-2.778.847-4.55v-4.551c0-1.799-.276-3.336-.827-4.611-.551-1.275-1.358-2.242-2.42-2.9-1.048-.671-2.312-1.007-3.791-1.007-1.425 0-2.695.316-3.811.947-.888.508-1.641 1.23-2.258 2.165v4.741c0-.886.188-1.691.564-2.416a4.176 4.176 0 0 1 1.634-1.711c.712-.417 1.552-.625 2.52-.625 1.56 0 2.763.477 3.61 1.43.847.94 1.27 2.275 1.27 4.007v4.53c0 1.692-.423 3.008-1.27 3.947-.847.926-2.05 1.39-3.61 1.39-.968 0-1.808-.215-2.52-.645a4.278 4.278 0 0 1-1.634-1.752c-.376-.738-.564-1.557-.564-2.456v4.968a5.154 5.154 0 0 0 2.036 2.1Z" fill="#0084FF"/></svg>
